svg/content_save_check.svg

<svg xmlns="http://www.w3.org/2000/svg" viewBox="0 0 24 24"><path d="M17 3H5c-1.1 0-2 .9-2 2v14a2 2 0 0 0 2 2h6.81c-.39-.66-.64-1.4-.74-2.16a2.994 2.994 0 0 1-1.87-3.81C9.61 13.83 10.73 13 12 13c.44 0 .88.1 1.28.29 2.29-1.79 5.55-1.7 7.72.25V7zm-2 6H5V5h10zm.75 12L13 18l1.16-1.16 1.59 1.59 3.59-3.59 1.16 1.41z"/></svg>

<svg xmlns="http://www.w3.org/2000/svg" id="mdi-content-save-check" viewBox="0 0 24 24"><path d="M17 3H5C3.9 3 3 3.9 3 5V19C3 20.11 3.9 21 5 21H11.81C11.42 20.34 11.17 19.6 11.07 18.84C9.5 18.31 8.66 16.6 9.2 15.03C9.61 13.83 10.73 13 12 13C12.44 13 12.88 13.1 13.28 13.29C15.57 11.5 18.83 11.59 21 13.54V7L17 3M15 9H5V5H15V9M15.75 21L13 18L14.16 16.84L15.75 18.43L19.34 14.84L20.5 16.25L15.75 21" /></svg>
